X:420
T:Reel 420
M:4/4
K:Amix
L:1/8
A2GF EDB,D|EFEF ECA,C|B,2B,A GFED|B,CDB, CA,A,2|E2ED EFGE|B,B,GD B,G,G,2|A,2ED EFGE|DB,GB, B,A,A,2|A2EA A2BA|GEEF GABG|A2EA A2BA|GEDB, B,A,A,2|A2EA A2BA|GEEF G2ED|EAAG A2GE|DB,B,D B,A,A,2|
